X: 273
T: Boys Of Malin
R: reel
M: 4/4
L: 1/8
K: Amaj
ABcd eAce|fedf edcB|ABcd eAce|1 fdBc d2cB:|2 fdBc defg||
|a~A3 cAce|a2ag fefg|a~A3 cAce|dcBc defg|
a~A3 cAce|abag f2fg|afge fdec|dcBc d2cB|
|:Aece Aece|Aece d2cB|Aece Aece|fdBc d2cB:|

